packages/components/src/components/icon/underlying/ic-underlying-OTC_FTSE.svg

<?xml version="1.0" encoding="UTF-8"?>
<svg width="32px" height="32px" viewBox="0 0 32 32" version="1.1" xmlns="http://www.w3.org/2000/svg" xmlns:xlink="http://www.w3.org/1999/xlink">
    <!-- Generator: Sketch 64 (93537) - https://sketch.com -->
    <title>assets/otc/ic-otcuk</title>
    <desc>Created with Sketch.</desc>
    <defs>
        <rect id="path-1" x="5.00000397e-08" y="0" width="24.0000001" height="16.0000001" rx="2"></rect>
    </defs>
    <g id="assets/otc/ic-otcuk" stroke="none" stroke-width="1" fill="none" fill-rule="evenodd">
        <g id="assets/otc/ic-otc">
            <g id="assets/flags/normal/ic-uk-gbp" transform="translate(4.000000, 8.000000)">
                <g id="Group" transform="translate(-0.000000, -0.000000)">
                    <mask id="mask-2" fill="white">
                        <use xlink:href="#path-1"></use>
                    </mask>
                    <use id="bg" fill="#0D47A1" xlink:href="#path-1"></use>
                    <path d="M23.9751095,1.53723811 C23.8334532,0.672523813 23.0940001,0.0130952381 22.2025782,0.0130952381 L21.7349064,0.0130952381 L14.0689689,5.11533335 L14.0689689,0.0130952381 L9.93103129,0.0130952381 L9.93103129,5.11538097 L2.26509376,0.0130952381 L1.79742188,0.0130952381 C0.906000004,0.0130952381 0.166546876,0.672523813 0.0248906251,1.53728572 L6.57698441,5.89823812 L0,5.89823812 L0,10.1018571 L6.57698441,10.1018571 L0.0248906251,14.4627144 C0.166546876,15.3274287 0.906000004,15.9868572 1.79742188,15.9868572 L2.26509376,15.9868572 L9.93103129,10.884619 L9.93103129,15.9868572 L14.0689688,15.9868572 L14.0689688,10.884619 L21.7349064,15.9868572 L22.2025782,15.9868572 C23.0940001,15.9868572 23.8334532,15.3274763 23.9751095,14.4627144 L17.4230157,10.1017619 L24,10.1017619 L24,5.89814288 L17.4230157,5.89814288 L23.9751095,1.53723811 Z" id="white" fill="#FFFFFF" fill-rule="nonzero" mask="url(#mask-2)"></path>
                    <path d="M13.2413907,0.0131428571 L13.2413907,6.73890479 L24,6.73890479 L24,9.26109528 L13.2413907,9.26109528 L13.2413907,15.9868572 L10.7586094,15.9868572 L10.7586094,9.26109528 L0,9.26109528 L0,6.73890479 L10.7586094,6.73890479 L10.7586094,0.0131428571 L13.2413907,0.0131428571 Z M9.90825004,10.1018095 L1.16217187,15.869143 C0.934209379,15.7816382 0.728506878,15.6483887 0.555672377,15.4804146 L0.432375002,15.3480953 L8.38818753,10.1018095 L9.90825004,10.1018095 Z M16.2369376,10.1018095 L23.7638907,15.065143 C23.6510157,15.2658287 23.5018407,15.442682 23.3253177,15.5863651 L23.1879376,15.687762 L14.7168751,10.1018095 L16.2369376,10.1018095 Z M0.725390627,0.373428573 L9.10345316,5.8981905 L7.58339065,5.8981905 L0.189796875,1.02261905 C0.316359376,0.765904765 0.500437501,0.543523812 0.725390627,0.373428573 Z M22.8235314,0.125095238 C23.1104532,0.232380952 23.3625939,0.412190477 23.559422,0.642238097 L23.559422,0.642238097 L15.5890314,5.8981905 L14.0689689,5.8981905 L22.8235314,0.125095238 Z" id="red" fill="#F44336" fill-rule="nonzero" mask="url(#mask-2)"></path>
                    <rect id="border" stroke-opacity="0.04" stroke="#000000" fill-rule="nonzero" mask="url(#mask-2)" x="0.50000005" y="0.5" width="23" height="15" rx="1"></rect>
                </g>
            </g>
        </g>
    </g>
</svg>

<svg width="32" height="32" xmlns="http://www.w3.org/2000/svg" xmlns:xlink="http://www.w3.org/1999/xlink"><defs><rect id="a" x="0" y="0" width="24" height="16" rx="2"/></defs><g transform="translate(4 8)" fill="none" fill-rule="evenodd"><mask id="b" fill="#fff"><use xlink:href="#a"/></mask><use fill="#0D47A1" xlink:href="#a"/><path d="M23.975 1.537A1.806 1.806 0 0022.203.013h-.468l-7.666 5.102V.013H9.931v5.102L2.265.013h-.468C.906.013.167.673.025 1.537l6.552 4.361H0v4.204h6.577l-6.552 4.36a1.806 1.806 0 001.772 1.525h.468l7.666-5.102v5.102h4.138v-5.102l7.666 5.102h.468c.891 0 1.63-.66 1.772-1.524l-6.552-4.361H24V5.898h-6.577l6.552-4.36z" fill="#FFF" fill-rule="nonzero" mask="url(#b)"/><path d="M13.241.013V6.74H24V9.26H13.241v6.726H10.76V9.26H0V6.74h10.759V.013h2.482zM9.908 10.102l-8.746 5.767a1.793 1.793 0 01-.606-.389l-.124-.132 7.956-5.246h1.52zm6.329 0l7.527 4.963c-.113.2-.262.378-.439.521l-.137.102-8.471-5.586h1.52zM.725.373l8.378 5.525h-1.52L.19 1.023C.316.766.5.543.725.373zM22.824.125a1.8 1.8 0 01.735.517l-7.97 5.256h-1.52L22.824.125z" fill="#F44336" fill-rule="nonzero" mask="url(#b)"/><rect stroke-opacity=".04" stroke="#000" fill-rule="nonzero" mask="url(#b)" x=".5" y=".5" width="23" height="15" rx="1"/></g></svg>
